X:94
T:Famous Ballymote
Z: id:dc-reel-86
M:C
L:1/8
K:D Mixolydian
E|FDAD FDAB|cBcG EFGE|FDAD FDAB|cAGE EDD:|!
E|FDFA d3B|cBcG EFGE|FDFA d2ed|cAGE EDD:|!

